X:1
T: Lucy Campbell's Reel
C:
R:Reel
Q: 232
K:D
M:4/4
L:1/8
dB|AD ((3FED) AD BD|AD ((3FED) BE E2|AD ((3FED) de fe|dB AF AD D2|
dB AB de fe|dB AF AD D2|dB AB de fe|dB AF AD D2|
ab ag de fe|dB AF BE E2|ab af de fe|dB AF AD D2|
ab ag de fe|ab af bg eg|fa ef de fe|dB AF AD D2|
de fe de fe|dB AF GE E2|df ef de fe|dB AF AD D2|
de fe de fe|dB AF GE E2|df ef de fe|dB AF AD D2|
AD ((3FED) AD BD|AD ((3FED) BE E2|AD ((3FED) de fe|dB AF AD D2|
dB AB de fe|dB AF AD D2|dB AB de fe|dB AF AD D2||
